; G-Code generated by Simplify3D(R) Version 3.1.0
; aug 5, 2017 at 12:28:47 
; Settings Summary
;   processName,Process1
;   applyToModels,motormount
;   profileName,ROBO 3D (modified)
;   profileVersion,2016-12-01 20:13:22
;   baseProfile,Default (modified)
;   printMaterial,PLA
;   printQuality,Fast
;   printExtruders,
;   extruderName,Primary Extruder
;   extruderToolheadNumber,0
;   extruderDiameter,0.4
;   extruderAutoWidth,0
;   extruderWidth,0.4
;   extrusionMultiplier,1
;   extruderUseRetract,1
;   extruderRetractionDistance,1
;   extruderExtraRestartDistance,0
;   extruderRetractionZLift,0
;   extruderRetractionSpeed,1800
;   extruderUseCoasting,0
;   extruderCoastingDistance,0.2
;   extruderUseWipe,1
;   extruderWipeDistance,15
;   primaryExtruder,0
;   layerHeight,0.3
;   topSolidLayers,3
;   bottomSolidLayers,3
;   perimeterOutlines,2
;   printPerimetersInsideOut,1
;   startPointOption,1
;   startPointOriginX,0
;   startPointOriginY,0
;   startPointOriginZ,300
;   sequentialIslands,0
;   spiralVaseMode,0
;   firstLayerHeightPercentage,100
;   firstLayerWidthPercentage,100
;   firstLayerUnderspeed,0.45
;   useRaft,0
;   raftExtruder,0
;   raftLayers,2
;   raftOffset,10
;   raftSeparationDistance,0.14
;   raftInfill,85
;   disableRaftBaseLayers,0
;   useSkirt,1
;   skirtExtruder,0
;   skirtLayers,1
;   skirtOutlines,3
;   skirtOffset,5
;   usePrimePillar,0
;   primePillarExtruder,999
;   primePillarWidth,12
;   primePillarLocation,7
;   primePillarSpeedMultiplier,1
;   useOozeShield,0
;   oozeShieldExtruder,999
;   oozeShieldOffset,2
;   oozeShieldOutlines,1
;   oozeShieldSidewallShape,1
;   oozeShieldSidewallAngle,30
;   oozeShieldSpeedMultiplier,1
;   infillExtruder,0
;   internalInfillPattern,Rectilinear
;   externalInfillPattern,Rectilinear
;   infillPercentage,30
;   outlineOverlapPercentage,15
;   infillExtrusionWidthPercentage,105
;   minInfillLength,5
;   infillLayerInterval,1
;   infillAngles,45,-45
;   overlapInfillAngles,0
;   generateSupport,1
;   supportExtruder,0
;   supportInfillPercentage,25
;   supportExtraInflation,0
;   denseSupportLayers,0
;   denseSupportInfillPercentage,70
;   supportLayerInterval,1
;   supportHorizontalPartOffset,0.3
;   supportUpperSeparationLayers,1
;   supportLowerSeparationLayers,1
;   supportType,1
;   supportGridSpacing,4
;   maxOverhangAngle,45
;   supportAngles,45,-45
;   temperatureName,Primary Extruder
;   temperatureNumber,0
;   temperatureSetpointCount,1
;   temperatureSetpointLayers,1
;   temperatureSetpointTemperatures,195
;   temperatureStabilizeAtStartup,1
;   temperatureHeatedBed,0
;   temperatureRelayBetweenLayers,0
;   temperatureRelayBetweenLoops,0
;   fanLayers,1,2
;   fanSpeeds,0,40
;   blipFanToFullPower,0
;   adjustSpeedForCooling,1
;   minSpeedLayerTime,15
;   minCoolingSpeedSlowdown,20
;   increaseFanForCooling,0
;   minFanLayerTime,45
;   maxCoolingFanSpeed,100
;   increaseFanForBridging,0
;   bridgingFanSpeed,100
;   use5D,1
;   relativeEdistances,0
;   allowEaxisZeroing,1
;   independentExtruderAxes,0
;   includeM10123,0
;   stickySupport,1
;   applyToolheadOffsets,0
;   gcodeXoffset,0
;   gcodeYoffset,0
;   gcodeZoffset,0.93
;   overrideMachineDefinition,1
;   machineTypeOverride,0
;   strokeXoverride,228
;   strokeYoverride,254
;   strokeZoverride,203
;   originOffsetXoverride,0
;   originOffsetYoverride,0
;   originOffsetZoverride,0
;   homeXdirOverride,-1
;   homeYdirOverride,-1
;   homeZdirOverride,-1
;   flipXoverride,1
;   flipYoverride,-1
;   flipZoverride,1
;   toolheadOffsets,0,0|0,0|0,0|0,0|0,0|0,0
;   overrideFirmwareConfiguration,0
;   firmwareTypeOverride,RepRap (Marlin/Repetier/Sprinter)
;   GPXconfigOverride,r2
;   baudRateOverride,115200
;   overridePrinterModels,0
;   printerModelsOverride
;   startingGcode,M106 S90;,G21 ; set units to millimeters,M104 T0 S210 ; start heating extruder 1,T0 ; set the active extruder to 0,G28 X0 Y0 Z0 ; home all axes,G1 Z5 F5000 ; lift nozzle,G28 X0 Y0 Z0 ; Home Z again in case there was filament on nozzle,G29 ; probe the bed,T0 ; set the active extruder to 0,G90 ; use absolute coordinates,G92 E0 ; reset the expected extruder position,M82 ; use absolute distance for extrusion,M106 S130;
;   layerChangeGcode,
;   retractionGcode,
;   toolChangeGcode,
;   endingGcode,M104 S0 ; turn off temperature,G1 X10 Y200,M84     ; disable motors
;   exportFileFormat,gcode
;   celebration,0
;   celebrationSong,Random Song
;   postProcessing,
;   defaultSpeed,3600
;   outlineUnderspeed,0.5
;   solidInfillUnderspeed,0.8
;   supportUnderspeed,0.8
;   rapidXYspeed,4800
;   rapidZspeed,1000
;   minBridgingArea,50
;   bridgingExtraInflation,0
;   bridgingExtrusionMultiplier,1
;   bridgingSpeedMultiplier,1
;   filamentDiameter,1.75
;   filamentPricePerKg,25
;   filamentDensity,1.25
;   useMinPrintHeight,0
;   minPrintHeight,0
;   useMaxPrintHeight,0
;   maxPrintHeight,0
;   useDiaphragm,0
;   diaphragmLayerInterval,20
;   robustSlicing,1
;   mergeAllIntoSolid,0
;   onlyRetractWhenCrossingOutline,1
;   retractBetweenLayers,1
;   useRetractionMinTravel,0
;   retractionMinTravel,3
;   retractWhileWiping,0
;   onlyWipeOutlines,1
;   avoidCrossingOutline,0
;   maxMovementDetourFactor,3
;   toolChangeRetractionDistance,12
;   toolChangeExtraRestartDistance,-0.5
;   toolChangeRetractionSpeed,600
;   allowThinWallGapFill,1
;   thinWallAllowedOverlapPercentage,10
;   horizontalSizeCompensation,0
G90
M82
M106 S0
M104 S195 T0
M109 S195 T0
M106 S90;
G21 ; set units to millimeters
M104 T0 S210 ; start heating extruder 1
T0 ; set the active extruder to 0
G28 X0 Y0 Z0 ; home all axes
G1 Z5 F5000 ; lift nozzle
G28 X0 Y0 Z0 ; Home Z again in case there was filament on nozzle
G29 ; probe the bed
T0 ; set the active extruder to 0
G90 ; use absolute coordinates
G92 E0 ; reset the expected extruder position
M82 ; use absolute distance for extrusion
M106 S130;
G92 E0
G1 E-1.0000 F1800
G1 Z1.230 F1000
; layer 1, Z = 0.3
T0
; tool H0.300 W0.400
; skirt
G1 X57.921 Y96.143 F4800
G1 E0.0000 F540
G92 E0
G1 X57.950 Y96.127 E0.0017 F1620
G1 X61.919 Y94.070 E0.2247
G1 X61.950 Y94.055 E0.2264
G1 X62.295 Y93.906 E0.2452
G1 X62.327 Y93.893 E0.2469
G1 X66.539 Y92.396 E0.4699
G1 X66.571 Y92.386 E0.4716
G1 X66.933 Y92.284 E0.4904
G1 X66.966 Y92.276 E0.4921
G1 X71.343 Y91.367 E0.7151
G1 X71.377 Y91.361 E0.7168
G1 X71.749 Y91.310 E0.7355
G1 X71.783 Y91.306 E0.7372
G1 X76.376 Y90.992 E0.9669
G1 X76.435 Y90.991 E0.9698
G1 X77.076 Y91.023 E1.0019
G1 X77.134 Y91.029 E1.0048
G1 X167.253 Y106.049 E5.5629
G1 X170.248 Y106.344 E5.7130
G1 X170.297 Y106.351 E5.7155
G1 X170.827 Y106.456 E5.7424
G1 X170.875 Y106.468 E5.7449
G1 X174.206 Y107.479 E5.9185
G1 X174.252 Y107.495 E5.9210
G1 X174.751 Y107.702 E5.9479
G1 X174.795 Y107.723 E5.9504
G1 X177.865 Y109.364 E6.1241
G1 X177.907 Y109.389 E6.1265
G1 X178.357 Y109.689 E6.1535
G1 X178.396 Y109.718 E6.1559
G1 X181.087 Y111.927 E6.3296
G1 X181.123 Y111.960 E6.3320
G1 X181.505 Y112.342 E6.3590
G1 X181.538 Y112.378 E6.3614
G1 X183.747 Y115.069 E6.5351
G1 X183.776 Y115.108 E6.5375
G1 X184.076 Y115.558 E6.5645
G1 X184.101 Y115.600 E6.5670
G1 X185.742 Y118.670 E6.7406
G1 X185.763 Y118.714 E6.7431
G1 X185.970 Y119.213 E6.7700
G1 X185.986 Y119.259 E6.7725
G1 X186.997 Y122.590 E6.9461
G1 X187.009 Y122.638 E6.9486
G1 X187.114 Y123.168 E6.9755
G1 X187.121 Y123.217 E6.9780
G1 X187.463 Y126.681 E7.1517
G1 X187.465 Y126.730 E7.1541
G1 X187.465 Y127.270 E7.1811
G1 X187.463 Y127.319 E7.1835
G1 X187.121 Y130.783 E7.3572
G1 X187.114 Y130.832 E7.3596
G1 X187.009 Y131.362 E7.3866
G1 X186.997 Y131.410 E7.3890
G1 X185.986 Y134.741 E7.5627
G1 X185.970 Y134.787 E7.5651
G1 X185.763 Y135.286 E7.5921
G1 X185.742 Y135.330 E7.5946
G1 X184.101 Y138.400 E7.7682
G1 X184.076 Y138.442 E7.7707
G1 X183.776 Y138.892 E7.7976
G1 X183.747 Y138.931 E7.8001
G1 X181.538 Y141.622 E7.9737
G1 X181.505 Y141.658 E7.9762
G1 X181.123 Y142.040 E8.0031
G1 X181.087 Y142.073 E8.0056
G1 X178.396 Y144.281 E8.1793
G1 X178.357 Y144.311 E8.1817
G1 X177.907 Y144.611 E8.2087
G1 X177.865 Y144.636 E8.2111
G1 X174.795 Y146.277 E8.3848
G1 X174.751 Y146.298 E8.3872
G1 X174.252 Y146.505 E8.4142
G1 X174.206 Y146.521 E8.4166
G1 X170.875 Y147.532 E8.5903
G1 X170.827 Y147.544 E8.5927
G1 X170.297 Y147.649 E8.6197
G1 X170.248 Y147.656 E8.6222
G1 X167.253 Y147.951 E8.7723
G1 X77.134 Y162.971 E13.3304
G1 X77.076 Y162.977 E13.3333
G1 X76.435 Y163.009 E13.3653
G1 X76.376 Y163.008 E13.3683
G1 X71.783 Y162.694 E13.5979
G1 X71.749 Y162.690 E13.5996
G1 X71.377 Y162.639 E13.6184
G1 X71.343 Y162.633 E13.6201
G1 X66.966 Y161.724 E13.8431
G1 X66.933 Y161.716 E13.8448
G1 X66.571 Y161.614 E13.8636
G1 X66.539 Y161.604 E13.8653
G1 X62.327 Y160.107 E14.0883
G1 X62.295 Y160.094 E14.0900
G1 X61.950 Y159.945 E14.1087
G1 X61.919 Y159.930 E14.1104
G1 X57.950 Y157.873 E14.3335
G1 X57.921 Y157.857 E14.3352
G1 X57.599 Y157.661 E14.3539
G1 X57.571 Y157.643 E14.3556
G1 X53.919 Y155.065 E14.5786
G1 X53.892 Y155.044 E14.5804
G1 X53.600 Y154.807 E14.5991
G1 X53.574 Y154.785 E14.6008
G1 X50.307 Y151.733 E14.8238
G1 X50.283 Y151.709 E14.8255
G1 X50.027 Y151.435 E14.8443
G1 X50.004 Y151.409 E14.8460
G1 X47.183 Y147.941 E15.0690
G1 X47.162 Y147.914 E15.0707
G1 X46.946 Y147.607 E15.0895
G1 X46.927 Y147.578 E15.0912
G1 X44.604 Y143.759 E15.3142
G1 X44.588 Y143.729 E15.3159
G1 X44.415 Y143.395 E15.3346
G1 X44.400 Y143.365 E15.3363
G1 X42.619 Y139.264 E15.5594
G1 X42.607 Y139.233 E15.5611
G1 X42.481 Y138.879 E15.5798
G1 X42.470 Y138.846 E15.5815
G1 X41.264 Y134.542 E15.8045
G1 X41.256 Y134.508 E15.8062
G1 X41.180 Y134.140 E15.8250
G1 X41.174 Y134.107 E15.8267
G1 X40.565 Y129.678 E16.0497
G1 X40.562 Y129.644 E16.0514
G1 X40.536 Y129.269 E16.0702
G1 X40.535 Y129.235 E16.0719
G1 X40.535 Y124.765 E16.2949
G1 X40.536 Y124.731 E16.2966
G1 X40.562 Y124.356 E16.3154
G1 X40.565 Y124.322 E16.3171
G1 X41.174 Y119.893 E16.5401
G1 X41.180 Y119.860 E16.5418
G1 X41.256 Y119.492 E16.5605
G1 X41.264 Y119.458 E16.5622
G1 X42.470 Y115.154 E16.7853
G1 X42.481 Y115.121 E16.7870
G1 X42.607 Y114.767 E16.8057
G1 X42.619 Y114.736 E16.8074
G1 X44.400 Y110.635 E17.0304
G1 X44.415 Y110.604 E17.0321
G1 X44.588 Y110.271 E17.0509
G1 X44.604 Y110.241 E17.0526
G1 X46.927 Y106.422 E17.2756
G1 X46.946 Y106.393 E17.2773
G1 X47.162 Y106.086 E17.2961
G1 X47.183 Y106.059 E17.2978
G1 X50.004 Y102.591 E17.5208
G1 X50.027 Y102.565 E17.5225
G1 X50.283 Y102.291 E17.5412
G1 X50.307 Y102.267 E17.5430
G1 X53.574 Y99.215 E17.7660
G1 X53.600 Y99.193 E17.7677
G1 X53.892 Y98.956 E17.7864
G1 X53.919 Y98.935 E17.7881
G1 X57.571 Y96.357 E18.0112
G1 X57.599 Y96.339 E18.0129
G1 X57.921 Y96.143 E18.0316
G1 X58.123 Y96.489 F4800
G92 E0
G1 X58.140 Y96.479 E0.0010 F1620
G1 X62.097 Y94.428 E0.2234
G1 X62.116 Y94.419 E0.2244
G1 X62.448 Y94.275 E0.2425
G1 X62.467 Y94.268 E0.2435
G1 X66.666 Y92.775 E0.4658
G1 X66.686 Y92.769 E0.4668
G1 X67.035 Y92.671 E0.4849
G1 X67.054 Y92.666 E0.4859
G1 X71.418 Y91.760 E0.7083
G1 X71.438 Y91.756 E0.7093
G1 X71.797 Y91.707 E0.7274
G1 X71.817 Y91.705 E0.7284
G1 X76.392 Y91.392 E0.9571
G1 X76.427 Y91.392 E0.9589
G1 X77.045 Y91.422 E0.9898
G1 X77.080 Y91.425 E0.9915
G1 X167.201 Y106.445 E5.5497
G1 X170.199 Y106.741 E5.7000
G1 X170.229 Y106.745 E5.7015
G1 X170.739 Y106.847 E5.7275
G1 X170.768 Y106.854 E5.7289
G1 X174.080 Y107.859 E5.9016
G1 X174.108 Y107.868 E5.9031
G1 X174.589 Y108.068 E5.9291
G1 X174.615 Y108.080 E5.9305
G1 X177.668 Y109.712 E6.1032
G1 X177.693 Y109.727 E6.1047
G1 X178.126 Y110.016 E6.1307
G1 X178.150 Y110.034 E6.1321
G1 X180.826 Y112.230 E6.3048
G1 X180.847 Y112.249 E6.3063
G1 X181.216 Y112.618 E6.3323
G1 X181.235 Y112.640 E6.3337
G1 X183.431 Y115.315 E6.5064
G1 X183.449 Y115.339 E6.5079
G1 X183.738 Y115.772 E6.5339
G1 X183.753 Y115.797 E6.5353
G1 X185.385 Y118.850 E6.7080
G1 X185.397 Y118.876 E6.7095
G1 X185.597 Y119.357 E6.7355
G1 X185.607 Y119.385 E6.7369
G1 X186.611 Y122.697 E6.9096
G1 X186.618 Y122.726 E6.9111
G1 X186.720 Y123.236 E6.9371
G1 X186.724 Y123.266 E6.9385
G1 X187.064 Y126.710 E7.1112
G1 X187.065 Y126.740 E7.1127
G1 X187.065 Y127.260 E7.1387
G1 X187.064 Y127.290 E7.1401
G1 X186.724 Y130.734 E7.3128
G1 X186.720 Y130.763 E7.3143
G1 X186.618 Y131.274 E7.3403
G1 X186.611 Y131.303 E7.3417
G1 X185.607 Y134.615 E7.5144
G1 X185.597 Y134.643 E7.5159
G1 X185.397 Y135.124 E7.5419
G1 X185.385 Y135.150 E7.5433
G1 X183.753 Y138.203 E7.7160
G1 X183.738 Y138.228 E7.7175
G1 X183.449 Y138.661 E7.7435
G1 X183.431 Y138.685 E7.7449
G1 X181.235 Y141.360 E7.9176
G1 X181.216 Y141.382 E7.9191
G1 X180.847 Y141.750 E7.9451
G1 X180.826 Y141.770 E7.9465
G1 X178.150 Y143.966 E8.1192
G1 X178.126 Y143.984 E8.1207
G1 X177.693 Y144.273 E8.1467
G1 X177.668 Y144.288 E8.1481
G1 X174.615 Y145.920 E8.3208
G1 X174.589 Y145.932 E8.3223
G1 X174.108 Y146.132 E8.3483
G1 X174.080 Y146.141 E8.3497
G1 X170.768 Y147.146 E8.5224
G1 X170.739 Y147.153 E8.5239
G1 X170.229 Y147.255 E8.5499
G1 X170.199 Y147.259 E8.5513
G1 X167.201 Y147.555 E8.7017
G1 X77.080 Y162.575 E13.2598
G1 X77.045 Y162.578 E13.2616
G1 X76.427 Y162.608 E13.2925
G1 X76.392 Y162.608 E13.2942
G1 X71.817 Y162.295 E13.5230
G1 X71.797 Y162.293 E13.5240
G1 X71.438 Y162.244 E13.5421
G1 X71.418 Y162.240 E13.5431
G1 X67.054 Y161.334 E13.7654
G1 X67.035 Y161.329 E13.7664
G1 X66.686 Y161.231 E13.7845
G1 X66.666 Y161.225 E13.7855
G1 X62.467 Y159.732 E14.0079
G1 X62.448 Y159.725 E14.0089
G1 X62.116 Y159.581 E14.0270
G1 X62.097 Y159.572 E14.0280
G1 X58.140 Y157.521 E14.2503
G1 X58.123 Y157.511 E14.2513
G1 X57.813 Y157.323 E14.2694
G1 X57.796 Y157.312 E14.2704
G1 X54.155 Y154.742 E14.4928
G1 X54.139 Y154.730 E14.4938
G1 X53.858 Y154.501 E14.5119
G1 X53.842 Y154.488 E14.5129
G1 X50.585 Y151.446 E14.7352
G1 X50.571 Y151.431 E14.7362
G1 X50.324 Y151.167 E14.7543
G1 X50.310 Y151.151 E14.7553
G1 X47.498 Y147.694 E14.9777
G1 X47.485 Y147.678 E14.9787
G1 X47.276 Y147.382 E14.9968
G1 X47.265 Y147.365 E14.9978
G1 X44.950 Y143.557 E15.2201
G1 X44.940 Y143.539 E15.2212
G1 X44.773 Y143.218 E15.2392
G1 X44.764 Y143.199 E15.2402
G1 X42.989 Y139.111 E15.4626
G1 X42.981 Y139.092 E15.4636
G1 X42.860 Y138.751 E15.4817
G1 X42.854 Y138.732 E15.4827
G1 X41.651 Y134.440 E15.7050
G1 X41.646 Y134.420 E15.7061
G1 X41.573 Y134.066 E15.7241
G1 X41.569 Y134.046 E15.7251
G1 X40.962 Y129.630 E15.9475
G1 X40.960 Y129.610 E15.9485
G1 X40.936 Y129.249 E15.9666
G1 X40.935 Y129.228 E15.9676
G1 X40.935 Y124.772 E16.1899
G1 X40.936 Y124.751 E16.1910
G1 X40.960 Y124.390 E16.2090
G1 X40.962 Y124.370 E16.2101
G1 X41.569 Y119.954 E16.4324
G1 X41.573 Y119.934 E16.4334
G1 X41.646 Y119.580 E16.4515
G1 X41.651 Y119.560 E16.4525
G1 X42.854 Y115.268 E16.6748
G1 X42.860 Y115.249 E16.6759
G1 X42.981 Y114.908 E16.6939
G1 X42.989 Y114.889 E16.6950
G1 X44.764 Y110.801 E16.9173
G1 X44.773 Y110.782 E16.9183
G1 X44.940 Y110.461 E16.9364
G1 X44.950 Y110.443 E16.9374
G1 X47.265 Y106.635 E17.1598
G1 X47.276 Y106.618 E17.1608
G1 X47.485 Y106.322 E17.1788
G1 X47.498 Y106.306 E17.1799
G1 X50.310 Y102.849 E17.4022
G1 X50.324 Y102.833 E17.4032
G1 X50.571 Y102.569 E17.4213
G1 X50.585 Y102.554 E17.4223
G1 X53.842 Y99.512 E17.6447
G1 X53.858 Y99.499 E17.6457
G1 X54.139 Y99.270 E17.6637
G1 X54.155 Y99.258 E17.6648
G1 X57.796 Y96.688 E17.8871
G1 X57.813 Y96.677 E17.8881
G1 X58.123 Y96.489 E17.9062
G1 X58.325 Y96.834 F4800
G92 E0
G1 X58.330 Y96.831 E0.0003 F1620
G1 X62.275 Y94.786 E0.2220
G1 X62.282 Y94.784 E0.2223
G1 X62.601 Y94.645 E0.2397
G1 X62.607 Y94.642 E0.2401
G1 X66.794 Y93.154 E0.4617
G1 X66.800 Y93.152 E0.4621
G1 X67.136 Y93.058 E0.4795
G1 X67.143 Y93.057 E0.4798
G1 X71.493 Y92.153 E0.7015
G1 X71.499 Y92.152 E0.7018
G1 X71.845 Y92.104 E0.7192
G1 X71.851 Y92.103 E0.7195
G1 X76.407 Y91.792 E0.9474
G1 X76.419 Y91.792 E0.9479
G1 X77.014 Y91.821 E0.9777
G1 X77.026 Y91.822 E0.9783
G1 X167.148 Y106.842 E5.5365
G1 X170.150 Y107.138 E5.6870
G1 X170.160 Y107.139 E5.6875
G1 X170.652 Y107.237 E5.7125
G1 X170.661 Y107.239 E5.7130
G1 X173.955 Y108.238 E5.8847
G1 X173.964 Y108.242 E5.8852
G1 X174.427 Y108.434 E5.9102
G1 X174.436 Y108.438 E5.9107
G1 X177.471 Y110.060 E6.0824
G1 X177.479 Y110.065 E6.0828
G1 X177.896 Y110.344 E6.1078
G1 X177.904 Y110.349 E6.1083
